X: 1
T: Adelaide Cup, The
M: 6/8
L: 1/8
R: jig
K: Amin
A/B/|: cAA EAA | cAe dcA | BEE cEE | Bed EAB |
cAA EAA | cAe dcA | EAc dBG | EAG A2 A/B/ :|
|: e2a age | ecA EAc | BGG dGG | BGd dcB |
e2a age | ecA EAc | BAG dBG |EAG A3  :|
